X: 1
T:Sweet Bunch of Daisies
M:3/4
L:1/8
K:D
|A2 ^G2 =G2
|: "D"F6 | "A7"G4 ^G2 | "D"A6 | "D7"f6
| "G"e3 def | "E7"d4 (3BdB | "D"A6 | "A"A2 ^G2 =G2
| "D"F6 | "A7"G4 ^G2 | "D"A6 | "Bm"f6
| "E"e6 | f4 ^ef | "A"e4-ed | cA-A2 G2
| "D"F6 | "A7"G4 ^G2 | "D"A6 | "D7"f6
| "G"e3 def | "E7"d4 (3BdB | "D"A6 | "D7"A2 ^G2 A2
| "G"B6 | "E7"d4 e2 | "D"f6 | "Bm"d3 cd^d
| "E"e4 (3fed | "A"c2 B2 A2 |1 "D"d6 | A2 ^G2 =G2 :|2 "D"d6-|d2 z4 ||
